!!!COM: Mozart, Wolfgang Amadeus
!!!OTL: Quartet in F Major for oboe, violin, viola and cello
!!!OMD: Allegro
!!!OMV: 1
!!!SCT1: K<sup>1</sup> 370
!!!SCA: Chronologisch-thematisches Verzeichnis sämtlicher Tonwerke Wolfgang Amade Mozarts (L. von Köchel; 1862, 2/1905, 3/1937, 1947)
!!!SCT2: K<sup>6</sup> 370
!!!YOR: Breitkopf & Härtel Edition
!!!ENC: Frances Bennion
!!!CDT: 1756/1/27/-1791/12/5/
!!!OCY: Österreich
!!!YEC: Copyright (c) 1994, 2000 Center for Computer Assisted Research in the Humanities
!!!YEM: Rights to all derivative editions reserved.
!!!YEM: Refer to licensing agreement for further details.
!!!YEN: United States of America
**kern	**kern	**kern	**kern
*k[b-]	*k[b-]	*k[b-]	*k[b-]
*F:	*F:	*F:	*F:
*clefC	*clefF	*clefG	*clefG
*M4/4	*M4/4	*M4/4	*M4/4
2..r	2..r	2..r	2..r
8r	8r	8r	8cc
=1	=1	=1	=1
8F	2.a	2.cc	[3..ff
8A	.	.	.
8c	.	.	.
8A	.	.	.
4F	.	.	.
.	.	.	24ff]
.	.	.	16ff
.	.	.	16ee
4r	8a	8cc	8ff
.	8g	8b-	8gg
=2	=2	=2	=2
2.r	8f	8a	8aa
.	8r	8r	16aa
.	.	.	16gg
.	8c	8a	8aa
.	8B-	8g	8bb-
.	8A	8f	8ccc
.	8d	8f#	8r
4D	8e	8g	8ddd
.	8f#	8a	8r
=3	=3	=3	=3
1GG	4g	4b-	8ccc
.	.	.	8bb-
.	4cc	4ee-	8aa
.	.	.	8gg
.	4b-	4dd	4gg
.	4a	4cc	4gg
=4	=4	=4	=4
2G	8g	8b-	2gg
.	8a	8cc	.
.	8b-	8dd	.
.	8a	8cc	.
2r	8g	8b-	4.r
.	8f	8a	.
.	8e	8g	.
.	8f	8a	8cc
=5	=5	=5	=5
8C	2.g	2.b-	[3..ee
8E	.	.	.
8G	.	.	.
8E	.	.	.
4C	.	.	.
.	.	.	24ee]
.	.	.	16ee
.	.	.	16dd
4r	8g	8b-	8ee
.	8f	8a	8ff
=6	=6	=6	=6
2.r	8e	8g	8gg
.	8r	8r	16gg
.	.	.	16ff
.	8B-	8g	8gg
.	8A	8f	8aa
.	8G	8e	8bb-
.	8c	8e	8r
4C	8d	8f	8ccc
.	8e	8g	8r
=7	=7	=7	=7
1FF	4f	4a	8bb-
.	.	.	8aa
.	4b-	4dd	8gg
.	.	.	8ff
.	4a	4cc	4ff
.	4g	4b-	4ff
=8	=8	=8	=8
8F	8f	8a	2ff
8r	8A	8c	.
8C	8F	8A	.
8r	8G	8B-	.
8AA	4A	4c	8r
8r	.	.	16ff
.	.	.	16ee
8FF	4r	4r	8ff
8r	.	.	8ff
=9	=9	=9	=9
2F	8r	8r	2cc#
.	8A	8c#	.
.	8A	8c#	.
.	8A	8c#	.
8D	4B-	4d	8dd
8r	.	.	16ff
.	.	.	16ee
8BB-	4r	4r	8ff
8r	.	.	8ff
=10	=10	=10	=10
2F	8r	8r	2b
.	8G#	8B	.
.	8G#	8B	.
.	8G#	8B	.
8C	8A	8c	8cc
8r	8c	8f	8ff
8AA	8f	8a	8aa
8r	8a	8cc	8ccc
=11	=11	=11	=11
2BB-	8a	8cc	8ccc
.	8g	8b-	8bb-
.	2f	2a	2aa
2C	.	.	.
.	4e	4g	4gg
=12	=12	=12	=12
8F	2e	2g#	2gg#
8r	.	.	.
8C	.	.	.
8r	.	.	.
8AA	4f	4a	8aa
8r	.	.	16ff
.	.	.	16ee
8FF	4r	4r	8ff
8r	.	.	8ff
=13	=13	=13	=13
2F	8r	8r	2ccc#
.	8a	8cc#	.
.	8a	8cc#	.
.	8a	8cc#	.
8D	4b-	4dd	8ddd
8r	.	.	16ff
.	.	.	16ee
8BB-	4r	4r	8ff
8r	.	.	8ff
=14	=14	=14	=14
2F	8r	8r	2bb
.	8g#	8b	.
.	8g#	8b	.
.	8g#	8b	.
8C	8a	8cc	4ccc
8r	8cc	16ff	.
.	.	16ee	.
8AA	8f	8ff	4r
8r	8a	8ff	.
=15	=15	=15	=15
4C	8b-	8ee	1r
.	8g	8gg	.
4r	8e	2bb-	.
.	8e	.	.
4C	8e	.	.
.	8g	.	.
4r	8b-	8gg	.
.	8g	16ff	.
.	.	16ee	.
=16	=16	=16	=16
4F	8a	8ff	1r
.	8f	8aa	.
4r	8A	2ccc	.
.	8A	.	.
4FF	8A	.	.
.	8c	.	.
4r	8c	8aa	.
.	8A	16gg	.
.	.	16ff	.
=17	=17	=17	=17
1BB-	8f	8ddd	8d
.	8r	8r	16e
.	.	.	16f
.	8d	8bb-	16g
.	.	.	16a
.	8r	8r	16b-
.	.	.	16cc
.	8B-	8gg	16dd
.	.	.	16ee
.	8r	8r	16ff
.	.	.	16gg
.	8G	8dd	16aa
.	.	.	16bb-
.	8r	8r	16ccc
.	.	.	16ddd
=18	=18	=18	=18
8C	8e	8g	8ccc
8r	8r	8r	8bb
2C#	2g	2ee	2bb-
4D	4f	4ff	4aa
=19	=19	=19	=19
8BB-	4.b-	4.dd	16aa
.	.	.	16gg
8BB-	.	.	16bb-
.	.	.	16aa
8BB-	.	.	16ccc
.	.	.	16bb-
8BB-	16a	16cc	16aa
.	16g	16b-	16gg
8C	8f	8a	4ff
8C	8a	8cc	.
8C	8g	8b-	4ee
8C	8e	8g	.
=20	=20	=20	=20
4FF	8f	8f	4ff
.	8f	16a	.
.	.	16b-	.
2.r	8e	16g	2.r
.	.	16a	.
.	8d	16f	.
.	.	16g	.
.	8c	16e	.
.	.	16f	.
.	8B-	16d	.
.	.	16e	.
.	8A	16c	.
.	.	16d	.
.	8G	16B-	.
.	.	16c	.
=21	=21	=21	=21
4r	4F	8A	8r
.	.	8a	8ff
4F	4r	8a	8ff
.	.	8a	8ff
4c	4e	4b-	4gg
4C	4e	16b-	16gg
.	.	16a	16ff#
.	.	16b-	16gg
.	.	16cc	16aa
=22	=22	=22	=22
4F	8f	8a	4ff
.	8f	16a	.
.	.	16b-	.
2.r	8e	16g	2.r
.	.	16a	.
.	8d	16f	.
.	.	16g	.
.	8c	16e	.
.	.	16f	.
.	8B-	16d	.
.	.	16e	.
.	8A	16c	.
.	.	16d	.
.	8G	16B-	.
.	.	16c	.
=23	=23	=23	=23
4r	8F	4A	8r
.	8f	.	8aa
4F	8f	4r	8aa
.	8f	.	8aa
4c	4g	4ee	4bb-
4C	16g	4ee	16bb-
.	16f#	.	16aa
.	16g	.	16bb-
.	16a	.	16ccc
=24	=24	=24	=24
4F	8f	8ff	4aa
.	8f	16aa	.
.	.	16bb-	.
2.r	8e	16gg	2.r
.	.	16aa	.
.	8d	16ff	.
.	.	16gg	.
.	8c	16ee	.
.	.	16ff	.
.	8B-	16dd	.
.	.	16ee	.
.	8A	16cc	.
.	.	16dd	.
.	8G	16b-	.
.	.	16cc	.
=25	=25	=25	=25
4FF	8F	8a	8r
.	8a	8cc	8ccc
4r	8a	8cc	8ccc
.	8a	8cc	8ccc
4F	8r	8r	4ccc
.	8a	8cc	.
4r	8a	8cc	8aa
.	8a	8cc	16gg
.	.	.	16ff
=26	=26	=26	=26
4E	8r	8r	8ff#
.	8g	8cc	8gg
4r	8g	8cc	8gg
.	8g	8cc	8gg
4E	8r	8r	4gg
.	8e	8g	.
4r	8e	8g	8ee
.	8e	8g	16dd
.	.	.	16cc
=27	=27	=27	=27
2D	2f	16G	8b
.	.	16f	.
.	.	16g	8ddd
.	.	16f	.
.	.	16g	8ccc
.	.	16f	.
.	.	16g	8bb
.	.	16f	.
4BB	4d	16G	8aa
.	.	16f	.
.	.	16g	8gg
.	.	16f	.
4GG	4B	16g	8gg
.	.	16f	.
.	.	16g	8gg
.	.	16f	.
=28	=28	=28	=28
8C	8c	16G	4.gg
.	.	16e	.
8r	8g	16g	.
.	.	16e	.
8G	8f	16g	.
.	.	16e	.
8r	8e	16g	8ee
.	.	16e	.
8E	8d	16G	4gg
.	.	16e	.
8r	8c	16g	.
.	.	16e	.
8C	8c	16g	4r
.	.	16e	.
8r	8c	16g	.
.	.	16e	.
=29	=29	=29	=29
2D	2f	16G	8b
.	.	16f	.
.	.	16g	8ddd
.	.	16f	.
.	.	16g	8ccc
.	.	16f	.
.	.	16g	8bb
.	.	16f	.
4BB	4d	16G	8aa
.	.	16f	.
.	.	16g	8gg
.	.	16f	.
4GG	4B	16g	8gg
.	.	16f	.
.	.	16g	8gg
.	.	16f	.
=30	=30	=30	=30
8C	8c	16G	4.gg
.	.	16e	.
8r	8g	16g	.
.	.	16e	.
8G	8f	16g	.
.	.	16e	.
8r	8e	16g	8ee
.	.	16e	.
8E	8d	8g	4.gg
8r	8c	8cc	.
8C	8e	8cc	.
8r	8e	8cc	8gg#
=31	=31	=31	=31
4F	4f	8cc	4.aa
.	.	4cc	.
2r	2r	.	.
.	.	4cc	8bb
.	.	.	12ccc
.	.	.	12bb
.	.	4cc	.
.	.	.	12aa
4B-	12e	.	12gg
.	12f	.	12ff
.	.	[8cc	.
.	12g	.	12ee
=32	=32	=32	=32
4A	4a	8cc]	4.ff
.	.	4a	.
2r	2r	.	.
.	.	4a	8gg
.	.	.	12aa
.	.	.	12gg
.	.	4a	.
.	.	.	12ff
4G	12c#	.	12ee
.	12d	.	12dd
.	.	8a	.
.	12e	.	12cc#
=33	=33	=33	=33
[1F	[1f	[1a	16cc#
.	.	.	16dd
.	.	.	16cc#
.	.	.	16dd
.	.	.	16ee
.	.	.	16ff
.	.	.	16ee
.	.	.	16ff
.	.	.	16gg#
.	.	.	16aa
.	.	.	16gg#
.	.	.	16aa
.	.	.	16bb
.	.	.	16ccc
.	.	.	16bb
.	.	.	16ccc
=34	=34	=34	=34
2.F]	2.f]	2.a]	16gg#
.	.	.	16aa
.	.	.	16gg#
.	.	.	16aa
.	.	.	16ee
.	.	.	16ff
.	.	.	16ee
.	.	.	16ff
.	.	.	16cc#
.	.	.	16dd
.	.	.	16cc#
.	.	.	16dd
4F#	4d	4a	16dd
.	.	.	16cc
.	.	.	16b
.	.	.	16cc
=35	=35	=35	=35
4G	4d	16g	4b
.	.	16G	.
.	.	16A	.
.	.	16B	.
4r	4r	16c	2.r
.	.	16d	.
.	.	16e	.
.	.	16f#	.
8GG	8G	8g	.
16AA	16A	16a	.
16BB	16B	16b	.
16C	16c	16cc	.
16D	16d	16dd	.
16E	16e	16ee	.
16F#	16f#	16ff#	.
=36	=36	=36	=36
4G	4g	4gg	1r
8r	8r	4g	.
8A	8c	.	.
8G	8B	4.r	.
8F	8A	.	.
8E	8G	.	.
8D	8F	8g	.
=37	=37	=37	=37
4C	8E	[3..cc	1r
.	8G	.	.
2.r	8c	.	.
.	8d	.	.
.	8e	.	.
.	.	24cc]	.
.	8g	16cc	.
.	.	16b	.
.	8e	8cc	.
.	8d	8dd	.
=38	=38	=38	=38
4C	8c	8ee	2..r
.	8G	16ee	.
.	.	16dd	.
2.r	8c	8ee	.
.	8d	8ff	.
.	8e	8gg	.
.	8B	8r	.
.	8c	8aa	.
.	8G	8r	8g
=39	=39	=39	=39
4D	8B	8gg	2.ddd
.	8d	8ff	.
2.r	8g	8ee	.
.	8f	8dd	.
.	8e	4dd	.
.	8f	.	.
.	8e	4dd	8ccc
.	8d	.	8bb
=40	=40	=40	=40
4GG	8c	2dd	8aa
.	8B	.	8gg
2.r	8A	.	8ff#
.	8B	.	8gg
.	8d	8gg	8bb
.	8G	8ff	8aa
.	8A	8ee	8gg
.	8B	8dd	8ff
=41	=41	=41	=41
4C	8c	[3..cc	4ee
.	8e	.	.
2.r	8g	.	2.r
.	8f	.	.
.	8e	.	.
.	.	24cc]	.
.	8g	16cc	.
.	.	16b	.
.	8e	8cc	.
.	8d	8dd	.
=42	=42	=42	=42
4C	8c	8ee	2..r
.	8G	16ee	.
.	.	16dd	.
2.r	8c	8ee	.
.	8d	8ff	.
.	8e	8gg	.
.	8B	8r	.
.	8c	8aa	.
.	8G	8r	8g
=43	=43	=43	=43
4D	8B	8gg	2.ddd
.	8d	8ff	.
2.r	8g	8ee	.
.	8f	8dd	.
.	8e	4dd	.
.	8f	.	.
.	8e	4dd	8ccc
.	8d	.	8bb
=44	=44	=44	=44
4GG	8c	2dd	8aa
.	8B	.	8gg
2.r	8A	.	8ff#
.	8B	.	8gg
.	8d	8gg	8bb
.	8G	8ff	8aa
.	8A	8ee	8gg
.	8B	8dd	8ff
=45	=45	=45	=45
4C	8c	8cc	4ee
.	8e	8g	.
4r	8e	8g	8r
.	8d	8f	8cc
2AA	8c#	8e	4.aa
.	8A	8c#	.
.	8B	8d	.
.	8c#	8e	8gg
=46	=46	=46	=46
4D	8d	8f	4ff
.	8f	8a	.
4r	8d	8f	8r
.	8c	8e	8dd
2GG	8B	8d	[6..gg
.	8G	8B	.
.	8A	8c	.
.	.	.	48gg]
.	.	.	16ff#
.	8B	8d	16gg
.	.	.	16ff
=47	=47	=47	=47
4C	8c	8e	4ee
.	8e	8g	.
4r	8e	8g	8r
.	8d	8f	8cc
2AA	8c#	8e	4.aa
.	8A	8c#	.
.	8B	8d	.
.	8c#	8e	8gg
=48	=48	=48	=48
4D	8d	8f	4ff
.	8f	8a	.
4r	8e	8f	8r
.	8c	8e	8dd
2GG	8B	8d	[6..gg
.	8G	8B	.
.	8A	8c	.
.	.	.	48gg]
.	.	.	16ff#
.	8B	8d	16gg
.	.	.	16ff
=49	=49	=49	=49
4C	4c	16e	4ee
.	.	16c	.
.	.	16d	.
.	.	16e	.
2.r	2.r	16f	2.r
.	.	16g	.
.	.	16a	.
.	.	16b	.
.	.	16cc	.
.	.	16dd	.
.	.	16ee	.
.	.	16ff	.
.	.	16gg	.
.	.	16aa	.
.	.	16bb	.
.	.	16ccc	.
=50	=50	=50	=50
2A	[1cc	2ff#	1r
4G	.	4gg	.
4F#	.	4aa	.
=51	=51	=51	=51
2G	4cc]	2dd	1r
.	4b	.	.
2C	2b-	4.ee	.
.	.	16dd	.
.	.	16ee	.
=52	=52	=52	=52
4F	8a	8ff	1r
.	16b	16gg	.
.	16cc	16aa	.
8.r	16b	16gg	.
.	16a	16ff	.
.	16g	16ee	.
16F	16f	16dd	.
4G	4e	4cc	.
4GG	4d	8.b	.
.	.	32a	.
.	.	32b	.
=53	=53	=53	=53
4C	4c	4cc	8c
.	.	.	16d
.	.	.	16e
2.r	2.r	2.r	16f
.	.	.	16g
.	.	.	16a
.	.	.	16b
.	.	.	16cc
.	.	.	16dd
.	.	.	16ee
.	.	.	16ff
.	.	.	16gg
.	.	.	16aa
.	.	.	16bb
.	.	.	16ccc
=54	=54	=54	=54
2A	1d	[1cc	2ff#
4G	.	.	4gg
4F#	.	.	4aa
=55	=55	=55	=55
2G	1g	4cc]	2dd
.	.	4b	.
2C	.	2b-	4.ee
.	.	.	16dd
.	.	.	16ee
=56	=56	=56	=56
8F	4f	16a	8ff
.	.	16g	.
8r	.	16f	16aa
.	.	16e	16gg
8D	8.r	16g	16bb
.	.	16f	16aa
8r	.	16e	16gg
.	16A	16d	16ff
8G	8G	8c	8ee
8r	8r	8r	8r
8F	8G	8B	8dd
8r	8r	8r	8r
=57	=57	=57	=57
2E	2e	2cc	8r
.	.	.	8gg
.	.	.	8gg
.	.	.	8gg
2A	2c	2e	8gg
.	.	.	8ff#
.	.	.	8ff
.	.	.	8ee
=58	=58	=58	=58
2F	4f	4a	8r
.	.	.	8dd
.	4r	8r	8ff
.	.	8ff	8aa
2G	4B	4ff	4aa
.	4r	8ee	8gg
.	.	8dd	8b
=59	=59	=59	=59
2E	2e	2cc	8r
.	.	.	8gg
.	.	.	8gg
.	.	.	8gg
2A	2c	2e	8gg
.	.	.	8ff#
.	.	.	8ff
.	.	.	8ee
=60	=60	=60	=60
2F	4f	4a	12r
.	.	.	12dd
.	.	.	12ee
.	4r	8r	12ff
.	.	.	12gg
.	.	8ff	.
.	.	.	12aa
2G	4B	4ff	4aa
.	8c	8ee	8gg
.	8f	8dd	8b
=61	=61	=61	=61
8C	4e	4cc	4cc
8C	.	.	.
8C	4c	4e	8r
8C	.	.	16ee
.	.	.	32dd
.	.	.	32ee
8C	4d	4f	4ff
8C	.	.	.
8C	4d#	4f#	8r
8C	.	.	16ff#
.	.	.	32ee
.	.	.	32ff#
=62	=62	=62	=62
8C	4e	4g	4gg
8C	.	.	.
8C	4e	4g#	8r
8C	.	.	16gg#
.	.	.	32ff#
.	.	.	32gg#
8C	8f	8a	8aa
8C	8r	8r	8r
8C	8d 8G	8b 8f	8bb
8C	8r	8r	8r
=63	=63	=63	=63
[2C	2d 2G	2b 2f	2bb
4C]	4c	4cc 4e	4ccc
4r	4r	4r	4r
=64	=64	=64	=64
1r	1r	2cc	1r
.	.	2g	.
=65	=65	=65	=65
1r	2cc	2a	1r
.	2g	2e	.
=66	=66	=66	=66
2c	2a	4.f	1r
.	.	16g	.
.	.	16a	.
2G	2e	8b-	.
.	.	8b-	.
.	.	8b-	.
.	.	8b-	.
=67	=67	=67	=67
2A	4.f	4a	2ccc
.	.	2cc	.
.	16g	.	.
.	16a	.	.
2E	8b-	.	2gg
.	8b-	.	.
.	8b-	[4c	.
.	8b-	.	.
=68	=68	=68	=68
2F	8a	4c]	8aa
.	8r	.	16bb
.	.	.	16ccc
.	8a	2ff	16ddd
.	.	.	16ccc
.	8b	.	16bb
.	.	.	16aa
2C	8cc	.	8gg
.	8r	.	16aa
.	.	.	16bb
.	8g	[4ee	16ccc
.	.	.	16bb
.	8r	.	16aa
.	.	.	16gg
=69	=69	=69	=69
2GG	4r	4ee]	8ff
.	.	.	16gg
.	.	.	16aa
.	8f	2dd	16bb
.	.	.	16aa
.	8B	.	16gg
.	.	.	16ff
2AA	8c	.	8ee
.	8r	.	16ff
.	.	.	16gg
.	8e	4cc	16aa
.	.	.	16gg
.	8A	.	16ff
.	.	.	16ee
=70	=70	=70	=70
2FF	4.f	4.a	8ee
.	.	.	8dd
.	.	.	4.cc
.	8f	8a	.
2GG	8e	8g	.
.	8c	8e	8ee
.	8B	8d	8dd
.	8d	8f	8b
=71	=71	=71	=71
2.C	8c	8e	4cc
.	8d	8f	.
.	8e	8g	2.r
.	8f	8a	.
.	8g	8b-	.
.	8b-	8dd	.
8D	8a	8cc	.
8E	8g	8b-	.
=72	=72	=72	=72
4F	4f	4a	2ff
2.r	2.r	2.r	.
.	.	.	2cc
=73	=73	=73	=73
1r	1r	2ff	2dd
.	.	2cc	2a
=74	=74	=74	=74
1r	2f	2dd	4.b-
.	.	.	16cc
.	.	.	16dd
.	2c	2a	8ee-
.	.	.	8ee-
.	.	.	8ee-
.	.	.	8ee-
=75	=75	=75	=75
2F	2d	4.b-	4dd
.	.	.	[2.ff
.	.	16cc	.
.	.	16dd	.
2C	2A	8ee-	.
.	.	8ee-	.
.	.	8ee-	.
.	.	8ee-	.
=76	=76	=76	=76
4D	8B-	8dd	4ff]
.	8r	16ee	.
.	.	16ff	.
4BB-	8d	16gg	2bb-
.	.	16ff	.
.	8e	16ee	.
.	.	16dd	.
2F	8f	8cc	.
.	8r	16dd	.
.	.	16ee	.
.	8c	16ff	[4aa
.	.	16ee	.
.	8r	16dd	.
.	.	16cc	.
=77	=77	=77	=77
4GG	8d	8b-	4aa]
.	8r	16cc	.
.	.	16dd	.
4BB-	8B-	16ee	2gg
.	.	16dd	.
.	8G	16cc	.
.	.	16b-	.
2D	8d	8a	.
.	8r	16b-	.
.	.	16cc	.
.	8A	16dd	4ff
.	.	16cc	.
.	8r	16b-	.
.	.	16a	.
=78	=78	=78	=78
8G	4G	4b-	16ee
.	.	.	16ff
8G	.	.	16ee
.	.	.	16ff
8G	2e	[3..b-	16gg
.	.	.	16aa
8G	.	.	16gg
.	.	.	16aa
8G	.	.	16bb-
.	.	.	16aa
8G	.	.	16gg
.	.	.	16aa
8G	8g	.	16gg
.	.	.	16ff
.	.	24b-]	.
8G#	8f	8b	16ee
.	.	.	16dd
=79	=79	=79	=79
2A	4e	16cc#	4cc#
.	.	16dd	.
.	.	16cc#	.
.	.	16dd	.
.	4.c#	16ee	2.r
.	.	16ff	.
.	.	16ee	.
.	.	16ff	.
8r	.	16gg	.
.	.	16ff	.
8G	8c#	16ee	.
.	.	16ff	.
8E	8e	16ee	.
.	.	16dd	.
8D	8g#	16cc#	.
.	.	16b	.
=80	=80	=80	=80
2C#	16a	4a	1r
.	16b	.	.
.	16a	.	.
.	16b	.	.
.	16cc#	16A	.
.	16dd	16B	.
.	16cc#	16A	.
.	16dd	16B	.
8r	16ee	8c#	.
.	16dd	.	.
8AA	16cc#	8c#	.
.	16dd	.	.
8BB	16cc	8d	.
.	16b-	.	.
8C#	16a	8e	.
.	16g	.	.
=81	=81	=81	=81
4D	4f	4A	8d
.	.	.	16e
.	.	.	16f
2.r	2.r	2.r	16g
.	.	.	16a
.	.	.	16b
.	.	.	16cc#
.	.	.	16dd
.	.	.	16ee
.	.	.	16ff
.	.	.	16gg
.	.	.	16aa
.	.	.	16bb
.	.	.	16ccc#
.	.	.	16ddd
=82	=82	=82	=82
4r	4r	4r	8ddd
.	.	.	8ee
4G	4b-	4dd 4e	8r
.	.	.	8ddd
4r	4r	4r	8ddd
.	.	.	8ff#
4A	4cc	4dd 4f#	8r
.	.	.	8ddd
=83	=83	=83	=83
4r	4r	4r	8ddd
.	.	.	8gg
4B-	4b-	4dd 4g	8r
.	.	.	8ddd
4r	4r	4r	8ddd
.	.	.	8aa
4F#	4a	4cc 4d	8r
.	.	.	8ddd
=84	=84	=84	=84
4r	4r	4r	8ddd
.	.	.	8bb-
4G	4g	4b- 4d	8r
.	.	.	8bb-
2r	2r	2r	8bb-
.	.	.	8gg
.	.	.	8gg
.	.	.	8ee
=85	=85	=85	=85
4A	8r	8r	[3..aa
.	8d	8f	.
4r	8d	8f	.
.	8d	8f	.
4A	8r	8r	.
.	.	.	24aa]
.	8d	8f	16bb-
.	.	.	16aa
4r	8d	8f	16gg
.	.	.	16ff
.	8d	8f	16ee
.	.	.	16dd
=86	=86	=86	=86
4A	8r	8r	1ee
.	8d	8e	.
4r	8d	8e	.
.	8d	8e	.
4A	8c	8e	.
.	8c	8e	.
4r	8c	8e	.
.	8c	8e	.
=87	=87	=87	=87
2D	2a	[2cc 2d	2ff#
4GG	4g	4b- 4d]	4gg
4r	4r	4r	8r
.	.	.	8bb-
=88	=88	=88	=88
4A	8r	8r	[3..aa
.	8d	8f	.
4r	8d	8f	.
.	8d	8f	.
4A	8r	8r	.
.	.	.	24aa]
.	8d	8f	16bb-
.	.	.	16aa
4r	8d	8f	16gg
.	.	.	16ff
.	8d	8f	16ee
.	.	.	16dd
=89	=89	=89	=89
4A	8r	8r	1ee
.	8d	8e	.
4r	8d	8e	.
.	8d	8e	.
4A	8c	8e	.
.	8c	8e	.
4r	8c	8e	.
.	8c	8e	.
=90	=90	=90	=90
2D	2a	[2cc 2d	2ff#
4GG	4g	4b- 4d]	4gg
4r	4r	4r	8r
.	.	.	8bb-
=91	=91	=91	=91
2C	3..c	2b- 2g	2ee
4FF	.	12a 12f	4ff
.	12f	12ff	.
.	12g	12gg	.
4r	12a	12aa	4r
.	12b-	12bb-	.
.	12cc	12ccc	.
=92	=92	=92	=92
12r	4dd	4ddd	3..r
12F	.	.	.
12G	.	.	.
12A	4cc	4ccc	.
12B-	.	.	.
12c	.	.	.
4d	4b-	4bb-	.
.	.	.	12ff
.	.	.	12gg
4c	4a	4aa	12aa
.	.	.	12bb-
.	.	.	12ccc
=93	=93	=93	=93
1B	[1g	8gg	4.ddd
.	.	8ff	.
.	.	8ee	.
.	.	8ff	24ccc
.	.	.	24bb
.	.	.	24aa
.	.	8ee	8gg
.	.	8ff	8r
.	.	8gg	8gg
.	.	8ff	8r
=94	=94	=94	=94
4c	4g]	4ee	4gg
4B	4a-	4ff	4aa-
2r	8r	8r	8r
.	16e	16g	16gg
.	16f	16a-	16aa-
.	16g	16b-	16bb-
.	16f	16a-	16aa-
.	16e	16g	16gg
.	16f	16a-	16aa-
=95	=95	=95	=95
4C	4e	4g	4gg
4BB	4f	4a-	4aa-
4.r	4.r	4.r	4.r
8BB	8f	8a-	8aa-
=96	=96	=96	=96
4C	4f	4a	4aa
4r	4r	4r	4r
4CC	4e 4G 4C	4ee 4b- 4g	[2bb-
4r	4r	4r	.
=97	=97	=97	=97
1r	1r	1r	8bb-]
.	.	.	16ccc
.	.	.	16bb-
.	.	.	16aa
.	.	.	16bb-
.	.	.	16aa
.	.	.	16bb-
.	.	.	8ccc
.	.	.	8bb-
.	.	.	8aa
.	.	.	8gg
=98	=98	=98	=98
4F	8r	1r	[3..ff
.	8A	.	.
2.r	8c	.	.
.	8e	.	.
.	8f	.	.
.	.	.	24ff]
.	8c	.	16ff
.	.	.	16ee
.	8a	.	8ff
.	8e	.	8gg
=99	=99	=99	=99
4F	8f	2..r	8aa
.	8c	.	16aa
.	.	.	16gg
4r	8f	.	8aa
.	8g	.	8bb-
4F	8a	.	8ccc
.	8e	.	8r
4r	8f	.	8ddd
.	8A	8c	8r
=100	=100	=100	=100
2.G	8B-	[3..e	8ccc
.	8g	.	8bb-
.	8cc	.	8aa
.	8b-	.	8gg
.	8a	.	4gg
.	.	24e]	.
.	8b-	16e	.
.	.	16d	.
8B-	8g	8e	4gg
8A	8f	8f	.
=101	=101	=101	=101
8G	8e	8g	2gg
8r	8g	16g	.
.	.	16f#	.
8G	8B-	8g	.
8F	8A	8a	.
8E	8G	8b-	4.r
8r	8B-	8r	.
8E	8E	8b-	.
8D	8F	8r	8cc
=102	=102	=102	=102
4C	8G	8b-	[3..ee
.	8g	8B-	.
2.r	8b-	8g	.
.	8a	8f	.
.	8g	4e	.
.	.	.	24ee]
.	8b-	.	16ee
.	.	.	16dd
.	8g	4r	8ee
.	8f	.	8ff
=103	=103	=103	=103
4C	8e	2..r	8gg
.	8c	.	16gg
.	.	.	16ff
4r	8e	.	8gg
.	8f	.	8aa
4C	8g	.	8bb-
.	8f	.	8r
4r	8e	.	8ccc
.	8g	8c	8r
=104	=104	=104	=104
2.F	8c	[3..f	8bb-
.	8cc	.	8aa
.	8b-	.	8gg
.	8a	.	8ff
.	8g#	.	4ff
.	.	24f]	.
.	8a	16f	.
.	.	16e	.
8A	8c	8f	4ff
8G	8B-	8g	.
=105	=105	=105	=105
8F	8A	8a	2ff
8r	8c	16a	.
.	.	16g	.
8C	8A	8a	.
8BB-	8G	8b-	.
8AA	8F	8cc	8r
8r	8F	8A	16ff
.	.	.	16ee
8FF	8G	8B-	8ff
8r	8A	8c 8c#	8ff
=106	=106	=106	=106
2F	8r	8r	2cc#
.	8A	8c#	.
.	8A	8c#	.
.	8A	8c#	.
8D	4B-	4d	8dd
8r	.	.	16ff
.	.	.	16ee
8BB-	4r	4r	8ff
8r	.	.	8ff
=107	=107	=107	=107
2F	8r	8r	2b
.	8G#	8B	.
.	8G#	8B	.
.	8G#	8B	.
8C	8A	8c	8cc
8r	8c	8f	8ff
8AA	8f	8a	8aa
8r	8a	8cc	8ccc
=108	=108	=108	=108
2BB-	8a	8cc	8ccc
.	8g	8b-	8bb-
.	2f	2a	2aa
2C	.	.	.
.	4e	4g	4gg
=109	=109	=109	=109
8F	2e	2g#	2gg#
8r	.	.	.
8C	.	.	.
8r	.	.	.
8AA	4f	4a	8aa
8r	.	.	16ff
.	.	.	16ee
8FF	4r	4r	8ff
8r	.	.	8ff
=110	=110	=110	=110
2F	8r	8r	2ccc#
.	8a	8cc#	.
.	8a	8cc#	.
.	8a	8cc#	.
8D	4b-	4dd	8ddd
8r	.	.	16ff
.	.	.	16ee
8BB-	4r	4r	8ff
8r	.	.	8ff
=111	=111	=111	=111
2F	8r	8r	2bb
.	8g#	8b	.
.	8g#	8b	.
.	8g#	8b	.
8C	4a	4cc	8ccc
8r	.	.	8ff
8AA	8r	8r	8aa
8r	8a	8ff	8ccc
=112	=112	=112	=112
1r	4dd	4ff	8ccc
.	.	.	8bb-
.	4cc	4ee	8bb-
.	.	.	8aa
.	4b-	4dd	8aa
.	.	.	8gg
.	4b	4dd	8gg
.	.	.	8ff
=113	=113	=113	=113
8C	8cc	8g	4ee
8r	16c	16e	.
.	16B	16d	.
8c	8c	8e	2.r
8r	8d	8f	.
8G	8e	8g	.
8r	16e	16g	.
.	16d	16f	.
8E	8e	8g	.
8r	8f	8a	.
=114	=114	=114	=114
4C	4g	4b-	16bb-
.	.	.	16ccc
.	.	.	16aa
.	.	.	16bb-
2.r	2.r	2.r	16gg
.	.	.	16aa
.	.	.	16ff
.	.	.	16gg
.	.	.	16ee
.	.	.	16ff
.	.	.	16gg
.	.	.	16ff
.	.	.	8gg
.	.	.	16ff
.	.	.	16ee
=115	=115	=115	=115
8C	8A	8f	4ff
8r	16A	16f	.
.	16G	16e	.
8c	8A	8f	2.r
8r	8e	8g	.
8A	8f	8a	.
8r	16f	16a	.
.	16e	16g	.
8F	8f	8a	.
8r	8g	8b-	.
=116	=116	=116	=116
4C	4a	4cc	16ccc
.	.	.	16ddd
.	.	.	16bb-
.	.	.	16ccc
2.r	2.r	2.r	16aa
.	.	.	16bb-
.	.	.	16gg
.	.	.	16aa
.	.	.	16ff
.	.	.	16gg
.	.	.	16aa
.	.	.	16gg
.	.	.	8aa
.	.	.	16gg
.	.	.	16ff#
=117	=117	=117	=117
8C	8e	8g	4gg
8r	16e	16g	.
.	16d	16f#	.
8B-	8e	8g	2.r
8r	8f	8a	.
8G	8g	8b-	.
8r	16g	16b-	.
.	16f	16a	.
8F	8g	8b-	.
8r	8a	8cc	.
=118	=118	=118	=118
8E	8b-	8dd	16bb-
.	.	.	16ccc
8r	8g	8b-	16ddd
.	.	.	16ccc
8G	8r	8r	16bb-
.	.	.	16aa
8r	8g	8b-	16gg
.	.	.	16ff
8C	8g	8b-	16ee
.	.	.	16ff
8r	8e	8g	16gg
.	.	.	16ff
8E	8r	8r	16ee
.	.	.	16dd
8r	8c	8g	16cc
.	.	.	16b-
=119	=119	=119	=119
4F	8c	8f	4a
.	8a	8cc	.
4r	8a	8cc	8r
.	8g	8b-	8ff
2D	8f#	8a	4.ddd
.	8d	8f#	.
.	8e	8g	.
.	8f#	8a	8ccc
=120	=120	=120	=120
4G	8g	8b-	4bb-
.	8b-	8dd	.
4r	8g	8b-	8r
.	8f	8a	8gg
2C	8e	8g	[6..ccc
.	8c	8e	.
.	8d	8f	.
.	.	.	48ccc]
.	.	.	16bb
.	8e	8g	16ccc
.	.	.	16bb-
=121	=121	=121	=121
4F	8f	8a	4aa
.	8a	8cc	.
4r	8a	8cc	8r
.	8g	8b-	8ff
2D	8f#	8a	8ddd
.	8d	8f#	4ddd
.	8e	8g	.
.	8f#	8a	8ccc
=122	=122	=122	=122
4G	8g	8b-	4bb-
.	8b-	8dd	.
4r	8g	8b-	8r
.	8f	8a	8gg
2C	8e	8g	8ccc
.	8c	8e	8.ccc
.	8d	8f	.
.	.	.	16bb
.	8e	8g	16ccc
.	.	.	16bb-
=123	=123	=123	=123
4F	4f	16a	4aa
.	.	16f	.
.	.	16g	.
.	.	16a	.
2.r	2.r	16b-	2.r
.	.	16cc	.
.	.	16dd	.
.	.	16ee	.
.	.	16ff	.
.	.	16gg	.
.	.	16aa	.
.	.	16bb-	.
.	.	16ccc	.
.	.	16aa	.
.	.	16gg	.
.	.	16ff	.
=124	=124	=124	=124
2BB	2f 2G	2ddd	1r
4C	4e	4ccc	.
4D	4f	4bb	.
=125	=125	=125	=125
4E	4g 4c	4bb-	1r
4F	4f	4aa	.
4AA	4e-	4ff#	.
[4BB-	[4d 4B-	4gg	.
=126	=126	=126	=126
8BB-]	8d 8B-]	16gg	1r
.	.	16aa	.
8r	16dd	16bb-	.
.	16cc	16aa	.
8GG	16ee	16ccc	.
.	16dd	16bb-	.
8r	16cc	16aa	.
.	16b-	16gg	.
8C	4a	4ff	.
8r	.	.	.
8C	4g	8.ee	.
8r	.	.	.
.	.	32dd	.
.	.	32ee	.
=127	=127	=127	=127
4F	4f	4ff	8f
.	.	.	16g
.	.	.	16a
2.r	2.r	2.r	16b-
.	.	.	16cc
.	.	.	16dd
.	.	.	16ee
.	.	.	16ff
.	.	.	16gg
.	.	.	16aa
.	.	.	16bb-
.	.	.	16ccc
.	.	.	16aa
.	.	.	16gg
.	.	.	16ff
=128	=128	=128	=128
2B	1g	2ff	2ddd
4c	.	4ee	4ccc
4d	.	4ff	4bb
=129	=129	=129	=129
4e	2.cc	4gg	4bb-
4f	.	4ff	4aa
4A	.	4ee-	4ff#
4B-	[4b-	[4dd	4gg
=130	=130	=130	=130
4BB-	4b-]	16dd]	16gg
.	.	16f#	16aa
.	.	16g	16bb-
.	.	16f#	16aa
8.r	8.r	16a	16ccc
.	.	16g	16bb-
.	.	16cc	16aa
16BB-	16d	16b-	16gg
8C	8c	8a	8ff
8r	8r	8r	8r
8BB-	8c	8g	8ee
8r	8r	8r	8r
=131	=131	=131	=131
2AA	2c	2ff	8r
.	.	.	8a
.	.	.	8b-
.	.	.	8b
2D	[2f	2a	8dd
.	.	.	8cc
.	.	.	8b-
.	.	.	8a
=132	=132	=132	=132
2BB-	2f]	4dd	8r
.	.	.	8g
.	.	8r	8b-
.	.	8b-	8dd
2C	2e	4b-	4dd
.	.	8a	8cc
.	.	8g	8b-
=133	=133	=133	=133
2F	2cc	2ff	8a
.	.	.	8aa
.	.	.	8bb-
.	.	.	8bb
2d	[2f	2a	8ddd
.	.	.	8ccc
.	.	.	8bb-
.	.	.	8aa
=134	=134	=134	=134
2B-	2f]	4dd	12r
.	.	.	12gg
.	.	.	12aa
.	.	8r	12bb-
.	.	.	12ccc
.	.	8bb-	.
.	.	.	12ddd
4c	4e	4bb-	4ddd
4C	8f	8aa	8ccc
.	8b-	8gg	8ee
=135	=135	=135	=135
8F	4a	4ff	[1ff
8F	.	.	.
8F	8r	8r	.
8F	16f	16a	.
.	32e	32g	.
.	32f	32a	.
8F	4g	4b-	.
8F	.	.	.
8F	8r	8r	.
8F	16g#	16b	.
.	32f#	32a	.
.	32g#	32b	.
=136	=136	=136	=136
8F	4a	4cc	1ff_
8F	.	.	.
8F	8r	8r	.
8F	16a	16cc#	.
.	32g	32b	.
.	32a	32cc#	.
8F	8b-	8dd	.
8F	8r	8r	.
8F	8b- 8g	8ee	.
8F	8r	8r	.
=137	=137	=137	=137
8F	[2a 2f	2ff	4ff]
8FF	.	.	.
8FF	.	.	8r
8FF	.	.	16ff
.	.	.	32ee
.	.	.	32ff
8FF	2b- 2f]	2ee	4gg
8FF	.	.	.
8FF	.	.	8r
8FF	.	.	16gg#
.	.	.	32ff#
.	.	.	32gg#
=138	=138	=138	=138
8FF	[2cc 2f	2ee-	4aa
8FF	.	.	.
8FF	.	.	8r
8FF	.	.	16aa
.	.	.	32gg
.	.	.	32aa
8FF	8b- 8f]	8dd	8bb-
8FF	8g#	8b	8bb
8FF	8a	8cc	8ccc
8FF	8a	8cc#	8ccc#
=139	=139	=139	=139
8FF	8b-	8dd	8ddd
4.r	4.r	4.r	4.r
8FF	8b- 8g	8ee	8eee
4.r	4.r	4.r	4.r
=140	=140	=140	=140
8FF	8a 8f	8ff	8fff
4.r	4.r	4.r	4.r
2C	2G 2C	2e 2B-	4.ccc
.	.	.	24bb-
.	.	.	24aa
.	.	.	24gg
=141	=141	=141	=141
8F	8F	8f 8A	8ff
4.r	4.r	4.r	4.r
2C	2G 2C	2e 2B-	4.ccc
.	.	.	24bb-
.	.	.	24aa
.	.	.	24gg
=142	=142	=142	=142
8F	8F	8f 8A	8ff
8r	8r	8r	8r
8F	8c	8a	8aa
8r	8r	8r	8r
8FF	8A	8f	8ff
4.r	4.r	4.r	4.r
==	==	==	==
*-	*-	*-	*-
!!!RWG1: This file contains only pitch and duration data.
!!!RWG2: Transposing instruments are not transposed.
!!!RWG3: Spines may have incompatible meters.
!!!RWG4: Durations of rests and tied notes may be interpreted.
!!!RWG: Key is interpreted using the Humdrum key tool.
!!!AFT: stage1
!!!END: 1997/04/15
!!!KEY: 3502279345
!!!EMD: Converted from MuseData to Humdrum Dec 16, 2000, by Andreas Kornstaedt using muse2kern.
!!!EMD: Manual editing by Craig Sapp, Nov 2001
